X: 52
T:Valentine's March. HS.52
M:C|
Q:150
S:Henry Stables MS,Cumbria,late19thC
R:March
O:Walthwaite,nr.Ambleside.
A:England
Z:vmp.Chris Partington
K:Bb
B2f>f (3fgf (3edc|d2b>bb2a2|g2f2e2d2|c2c>c cedc|!
B2f>f (3fgf (3edc|d2b>bb2b2|ba/z/ag/z/gf/z/f=e/z/|f2fff2z::!
f2e>ee2A/B/c/d/|e2d>dd2 (3Bdf|ggff eedd|c2c>cc2zF|!
B2d>BG2e>c|A2f>dB2g>e|dbged2f/e/d/c/|B2B>BB4:||
